X: 103
T: No_191_Crawfish_Dance_Song_(b).krn
N: Derived from No_191_Crawfish_Dance_Song_(b).krn
%%abc-version 2.0
%%abcx-abcm2ps-target-version 5.9.1 (29 Sep 2008)
%%abc-creator hum2abc beta
%%abcx-conversion-date 2019/03/15 08:38:45
%%humdrum-veritas 3126904486
%%humdrum-veritas-data 3773830470
%%linebreak <none>
%%barnumbers 0
L: 1/8
M: 3/4
K: E clef=bass
[K:clef=bass][M:3/4]z4E,F, ]|:  
G,4-G,F, ||  
[M:4/4]E,/E,E,/E,2C, z E,G, ||  
[M:3/4]F,4-F,E, ||  
[M:4/4]C,/C,C,/C,2B,, z B,,F, ||  
[M:2/4]E,4 ||  
[M:4/4]F,/E,3/ (3E,E,E, E,E,C,2 ||  
[M:2/4]E,4 | 
E,/E,3/ C, z | 
E,4- | 
E,4 | 
z2C,2 | 
E,4 | 
E,E,C,2 | 
E,4 | 
E,2F,F, :|]  
F,/E,3/ E,3/E,/ | 
E,2E,2 | 
G,/E,3/ E,E, | 
G,//F,3//E, E, z | 
G,/E,3/ E,E,



